img/icons8-eliminar.svg

<svg fill="#FFFFFF" xmlns="http://www.w3.org/2000/svg"  viewBox="0 0 64 64" width="50px" height="50px"><path d="M 16 14 C 15.488 14 14.976938 14.194937 14.585938 14.585938 C 13.804937 15.366937 13.804937 16.633063 14.585938 17.414062 L 29.171875 32 L 14.585938 46.585938 C 13.804938 47.366938 13.804937 48.633063 14.585938 49.414062 C 14.976937 49.805062 15.488 50 16 50 C 16.512 50 17.023062 49.805062 17.414062 49.414062 L 32 34.828125 L 46.585938 49.414062 C 47.366938 50.195063 48.633063 50.195062 49.414062 49.414062 C 50.195063 48.633062 50.195062 47.366937 49.414062 46.585938 L 34.828125 32 L 49.414062 17.414062 C 50.195063 16.633063 50.195062 15.366938 49.414062 14.585938 C 48.633062 13.804938 47.366937 13.804938 46.585938 14.585938 L 32 29.171875 L 17.414062 14.585938 C 17.023062 14.194938 16.512 14 16 14 z"/></svg>

<svg xmlns="http://www.w3.org/2000/svg" xmlns:xlink="http://www.w3.org/1999/xlink" viewBox="0,0,256,256" width="48px" height="48px" fill-rule="nonzero"><g fill="#05316d" fill-rule="nonzero" stroke="none" stroke-width="1" stroke-linecap="butt" stroke-linejoin="miter" stroke-miterlimit="10" stroke-dasharray="" stroke-dashoffset="0" font-family="none" font-weight="none" font-size="none" text-anchor="none" style="mix-blend-mode: normal"><g transform="scale(4,4)"><path d="M16,14c-0.512,0 -1.02306,0.19494 -1.41406,0.58594c-0.781,0.781 -0.781,2.04712 0,2.82812l14.58594,14.58594l-14.58594,14.58594c-0.781,0.781 -0.781,2.04713 0,2.82812c0.391,0.391 0.90206,0.58594 1.41406,0.58594c0.512,0 1.02306,-0.19494 1.41406,-0.58594l14.58594,-14.58594l14.58594,14.58594c0.781,0.781 2.04713,0.781 2.82812,0c0.781,-0.781 0.781,-2.04713 0,-2.82812l-14.58594,-14.58594l14.58594,-14.58594c0.781,-0.781 0.781,-2.04712 0,-2.82812c-0.781,-0.781 -2.04713,-0.781 -2.82812,0l-14.58594,14.58594l-14.58594,-14.58594c-0.391,-0.391 -0.90206,-0.58594 -1.41406,-0.58594z"></path></g></g></svg>
